resources/svg/question-answer-fill.svg

<svg fill="currentColor" viewBox="0 0 24 24" xmlns="http://www.w3.org/2000/svg"><path d="M8 18H18.2372L20 19.3851V9H21C21.5523 9 22 9.44772 22 10V23.5L17.5455 20H9C8.44772 20 8 19.5523 8 19V18ZM5.45455 16L1 19.5V4C1 3.44772 1.44772 3 2 3H17C17.5523 3 18 3.44772 18 4V16H5.45455Z"/></svg>

<svg xmlns="http://www.w3.org/2000/svg" viewBox="0 0 24 24" fill="currentColor">
    <g>
        <path fill="none" d="M0 0h24v24H0z"/>
        <path d="M8 18h10.237L20 19.385V9h1a1 1 0 0 1 1 1v13.5L17.545 20H9a1 1 0 0 1-1-1v-1zm-2.545-2L1 19.5V4a1 1 0 0 1 1-1h15a1 1 0 0 1 1 1v12H5.455z"/>
    </g>
</svg>
